svg/login_variant.svg

<svg xmlns="http://www.w3.org/2000/svg" viewBox="0 0 24 24"><path d="M19 3H5c-1.11 0-2 .89-2 2v4h2V5h14v14H5v-4H3v4a2 2 0 0 0 2 2h14a2 2 0 0 0 2-2V5a2 2 0 0 0-2-2m-8.92 12.58L11.5 17l5-5-5-5-1.42 1.41L12.67 11H3v2h9.67z"/></svg>

<?xml version="1.0" encoding="UTF-8"?><!DOCTYPE svg PUBLIC "-//W3C//DTD SVG 1.1//EN" "http://www.w3.org/Graphics/SVG/1.1/DTD/svg11.dtd"><svg xmlns="http://www.w3.org/2000/svg" xmlns:xlink="http://www.w3.org/1999/xlink" version="1.1" id="mdi-login-variant" width="24" height="24" viewBox="0 0 24 24"><path d="M19,3H5C3.89,3 3,3.89 3,5V9H5V5H19V19H5V15H3V19A2,2 0 0,0 5,21H19A2,2 0 0,0 21,19V5C21,3.89 20.1,3 19,3M10.08,15.58L11.5,17L16.5,12L11.5,7L10.08,8.41L12.67,11H3V13H12.67L10.08,15.58Z" /></svg>
